X:1
T:Title
%%score { 1 | ( 2 3 ) }
L:1/8
M:4/4
K:A
V:1 treble nm="Grand Piano"
V:2 bass 
V:3 bass 
V:1
 z4 z2 z[Q:1/4=78] [CE]/[CE]/ | [Ec][Ec][DB][Ec] [DB] [CA]2 [CA]/A/ |[M:7/8] BAG F[DF] [CE]2 | %3
[M:1/8] [CE]/[CE]/ |[M:4/4] [Ec][Ec][DB][Ec] [DB] [CA]2 [CA]/[CG]/ | %5
[M:7/8] [^DF][DA][Dc] [DB]B E2 |[M:1/8] E/E/ |[M:4/4] EE^EE =E3 E/E/ |[M:7/8] EEG F E3 | %9
[M:1/8] [Fd] |[M:4/4] [Ec][DB] [CA]>[CE] G F2 F | [^DF][DF] [DB]>[DF] A G2 F | %12
[M:7/8] Edc =c [E^c]3 |[M:1/8] [Fd] |[M:4/4] [Ec][DB] [CA]>[CE] G F2 F | %15
 [^DF][DF] [DB]>[DF] A G2 F |[M:7/8] Edc B [CA]3 |] %17
V:2
 z4 z2 z [A,,A,] | [A,,A,][A,,A,][A,,A,][A,,A,] [A,,A,] [A,,A,]2 z/ C/ | %2
[M:7/8] [D,F,D][D,F,D][D,A,D] [D,A,D][A,,A,] [A,,A,]2 |[M:1/8] [A,,A,] | %4
[M:4/4] [A,,A,][A,,A,][A,,A,][A,,A,] [A,,A,] [A,,A,]2 [A,,A,] | %5
[M:7/8] [B,,A,][B,,A,][B,,A,] [B,,A,][E,G,E] [E,G,]2 |[M:1/8] z | %7
[M:4/4] [E,G,B,]2 [E,A,=C]2 [E,G,B,]4 |[M:7/8] [E,G,B,]2 [E,B,D]2 [E,G,B,D]3 |[M:1/8] [D,G,] | %10
[M:4/4] [A,,A,][A,,A,] [A,,A,]>[A,,A,] [D,A,D] [D,A,D]2 [D,A,D] | %11
 [B,,A,][B,,A,] [B,,F,]>[B,,B,] [E,B,D] [E,B,D]2 [E,A,D] | %12
[M:7/8] [E,G,D][E,G,F][E,G,E] [E,G,^D] [A,,A,]3 |[M:1/8] [D,G,] | %14
[M:4/4] [A,,A,][A,,A,] [A,,A,]>[A,,A,] [D,A,D] [D,A,D]2 [D,A,D] | %15
 [B,,A,][B,,A,] [B,,F,]>[B,,B,] [E,B,D] [E,B,D]2 [E,A,D] | %16
[M:7/8] [E,G,D][E,G,F][E,G,E] [E,G,D] [A,,A,]3 |] %17
V:3
 x8 | z4 z2 z [A,,A,] |[M:7/8] x7 |[M:1/8] x |[M:4/4] x8 |[M:7/8] x7 |[M:1/8] x |[M:4/4] x8 | %8
[M:7/8] x7 |[M:1/8] x |[M:4/4] x8 | x8 |[M:7/8] x7 |[M:1/8] x |[M:4/4] x8 | x8 |[M:7/8] x7 |] %17

